X: 4
T: O'Mahoney's
R: reel
M: 4/4
L: 1/8
K: Dmaj
AF~F2 DFA,F|DF~F2 ABde|fdad bdad|^dege cABc|d/c/B c/B/^A B=AFE|D2FD A,DFA|BG~G2 eAce|1 faec dcdB:|2 faec d2ag|||:^effe faf=e|df~f2 af~f2|d'fad' f'd'af|g/f/e f/e/^d eAce|^effe faf=e|df~f2 adfa|(3gag fa gbag|1 fgfe d2ag:|2 fgfe d2fg|||:aA~A2 FAde|fd'~d'2 bagf|gee^d e=dcB|(3ABA ^GB A2f=g|aA~A2 FAde|fd'~d'2 bagf|gee^d e=dcB|1 AFGE D2fg:|2 AFGE D2AG|||:FA~A2 F/G/A DF|ADFA bafa|g2fg e/f/g dB|AecA ^GA=GA|FA~A2 F/G/A DF|ADFA bafa|g2fg e/f/g de|1 cA B/=c/^c dcdA:|2 cA B/=c/^c dcdB||AF~F2 DFA,F|DF~F2 ABde|fdad bdad|^dege cABc|dBBA BAFE|D2FD A,DFA|BG~G2 eAce|1 faec dcdB:|2 faec d2ag|||:~f3e fafe|df~f2 af~f2|d'fad' f'd'af|gee^d eAce|~f3e fafe|df~f2 adfa|g2fa gbag|1 fgfe d2ag:|2 fgfe d2fg|||:aA~A2 FAde|fd'~d'2 bagf|gee^d e=dcB|(3ABA ^GB A2f=g|aA~A2 FAde|fd'~d'2 bagf|gee^d e=dcB|1 AFGE D2fg:|2 AFGE D2AG|||:FA~A2 FADF|ADFA bafa|g2fg egdB|AecA ^GA=GA|FA~A2 FADF|ADFA bafa|g2fg egde|1 cABc dcdA:|2 cABc dcdB||


Tune 2716	Setting 2716

